vendor/shopware/storefront/Resources/app/storefront/dist/assets/icon/solid/traslated.svg

<svg xmlns="http://www.w3.org/2000/svg" width="16" height="16" viewBox="0 0 16 16">
  <path fill="#758CA3" fill-rule="evenodd" d="M9,6 L9,12 C9,12.5522847 8.55228475,13 8,13 C7.44771525,13 7,12.5522847 7,12 L7,6 L5,6 C4.44771525,6 4,5.55228475 4,5 C4,4.44771525 4.44771525,4 5,4 L11,4 C11.5522847,4 12,4.44771525 12,5 C12,5.55228475 11.5522847,6 11,6 L9,6 Z"/>
</svg>

<svg xmlns="http://www.w3.org/2000/svg" width="16" height="16" viewBox="0 0 16 16"><path fill="#758CA3" fill-rule="evenodd" d="M9 6v6c0 .5523-.4477 1-1 1s-1-.4477-1-1V6H5c-.5523 0-1-.4477-1-1s.4477-1 1-1h6c.5523 0 1 .4477 1 1s-.4477 1-1 1H9z"/></svg>
